X:1
T:Jægerkor
T:Jægerkor
T:Bind 2, No. 30
T:F. Kuhlau
T:J. L. Heiberg
C:F. Kuhlau
Z:J. L. Heiberg
%%score [ 1 2 3 4 ]
L:1/8
Q:1/4=116
M:2/4
K:D
V:1 treble-8 nm="T1"
V:2 treble-8 nm="T2"
V:3 bass nm="B1"
V:4 bass nm="B2"
V:1
!mf!"^Allegretto con fuoco" d2 d d | f3/2 d/ d2 | d2 d d | f3/2 d/ d2 |!<(! f2 f f!<)! | a2 f d | %6
w: 1.Her- ligt en|Som- mer- nat|dra- ge til|El- ver- krat,|hvi- le ved|Kil- den den|
w: 2.Mø- der en|Nym- fe dig,|lad hen- de|skjøt- te sig!|Jæ- ger, o,|lad hen- de|
w: 3.Gaa paa den|sik- re Vej,|sværm og for-|vild dig ej,|Jæ- ger, i-|agt du dig|
!<(! e4 | f2!<)! z2 |!mf! f2 f f | a3/2 f/ f2 | f2 f f | a3/2 f/ f2 | d2!<(! d d!<)! | f2 e e | %14
w: sva-|le!|Lu- na sit|Søl- ver- baand|snor om En-|dy- mi- on,|spej- der i|Busk og i|
w: fa-|re!|Husk, at Ak-|tæ- on fik|Straf for et|dri- stigt Blik.|Jæ- ger, o,|tag dig i-|
w: ta-|ge!|Men, har du|tabt vort Spor,|lyt til vort|Jæ- ger- kor,|det skal dig|kal- de til-|
!>(! d4 | d2!>)! z2 |] %16
w: Da-|le.|
w: va-|re!|
w: ba-|ge!|
V:2
!mf! A2 A A | A3/2 A/ A2 | A2 A A | A3/2 A/ A2 |!<(! d2 d d!<)! | d2 d d |!<(! c4 | d2!<)! z2 | %8
w: 1.Her- ligt en|Som- mer- nat|dra- ge til|El- ver- krat,|hvi- le ved|Kil- den den|sva-|le!|
w: 2.Mø- der en|Nym- fe dig,|lad hen- de|skjøt- te sig!|Jæ- ger, o,|lad hen- de|fa-|re!|
w: 3.Gaa paa den|sik- re Vej,|sværm og for-|vild dig ej,|Jæ- ger, i-|agt du dig|ta-|ge!|
!mf! d2 d d | c3/2 c/ c2 | d2 d d | c3/2 c/ c2 | B2!<(! B B!<)! | d2 c c |!>(! A4 | A2!>)! z2 |] %16
w: Lu- na sit|Søl- ver- baand|snor om En-|dy- mi- on,|spej- der i|Busk og i|Da-|le.|
w: Husk, at Ak-|tæ- on fik|Straf for et|dri- stigt Blik.|Jæ- ger, o,|tag dig i-|va-|re!|
w: Men, har du|tabt vort Spor,|lyt til vort|Jæ- ger- kor,|det skal dig|kal- de til-|ba-|ge!|
V:3
!mf! F,2 F, F, | A,3/2 F,/ F,2 | F,2 F, F, | A,3/2 F,/ F,2 |!<(! A,2 A, A,!<)! | A,2 A, A, | %6
w: 1.Her- ligt en|Som- mer- nat|dra- ge til|El- ver- krat,|hvi- le ved|Kil- den den|
w: 2.Mø- der en|Nym- fe dig,|lad hen- de|skjøt- te sig!|Jæ- ger, o,|lad hen- de|
w: 3.Gaa paa den|sik- re Vej,|sværm og for-|vild dig ej,|Jæ- ger, i-|agt du dig|
!<(! A,4 | A,2!<)! z2 |!mf! B,2 B, B, | A,3/2 A,/ A,2 | B,2 B, B, | A,3/2 A,/ A,2 | %12
w: sva-|le!|Lu- na sit|Søl- ver- baand|snor om En-|dy- mi- on,|
w: fa-|re!|Husk, at Ak-|tæ- on fik|Straf for et|dri- stigt Blik.|
w: ta-|ge!|Men, har du|tabt vort Spor,|lyt til vort|Jæ- ger- kor,|
 B,2!<(! B, B,!<)! | A,2 A, A, |!>(! F,4 | F,2!>)! z2 |] %16
w: spej- der i|Busk og i|Da-|le.|
w: Jæ- ger, o,|tag dig i-|va-|re!|
w: det skal dig|kal- de til-|ba-|ge!|
V:4
!mf! D,2 D, D, | D,3/2 D,/ D,2 | D,2 D, D, | D,3/2 D,/ D,2 |!<(! D,2 D, D,!<)! | F,2 D, F, | %6
w: 1.Her- ligt en|Som- mer- nat|dra- ge til|El- ver- krat,|hvi- le ved|Kil- den den|
w: 2.Mø- der en|Nym- fe dig,|lad hen- de|skjøt- te sig!|Jæ- ger, o,|lad hen- de|
w: 3.Gaa paa den|sik- re Vej,|sværm og for-|vild dig ej,|Jæ- ger, i-|agt du dig|
!<(! A,4 | D,2!<)! z2 |!mf! B,2 B, B, | F,3/2 F,/ F,2 | B,2 B, B, | F,3/2 F,/ F,2 | %12
w: sva-|le!|Lu- na sit|Søl- ver- baand|snor om En-|dy- mi- on,|
w: fa-|re!|Husk, at Ak-|tæ- on fik|Straf for et|dri- stigt Blik.|
w: ta-|ge!|Men, har du|tabt vort Spor,|lyt til vort|Jæ- ger- kor,|
 G,2!<(! G, G,!<)! | A,2 A,, A,, |!>(! D,4 | D,2!>)! z2 |] %16
w: spej- der i|Busk og i|Da-|le.|
w: Jæ- ger, o,|tag dig i-|va-|re!|
w: det skal dig|kal- de til-|ba-|ge!|

